!! 00000] TT[WS
!!!OTL: Kan yangge
!!!ARE: Asia, China, Shanxi Linxian
!! Ethnic Group: Han
!! WI, 244
!!!SCT: J0290
!!!YEM: Copyright 1995, estate of Helmut Schaffrath.
**kern
*ICvox
*Ivox
!! 3/43+2 metric grouping
!! Mixed meters:  2/4; 5/8
*M5/8
*k[f#c#]
*D:
{8r
8a
8a
16a
16b
=1
8.dd
16b
4dd
=2
8ee
8ff#
16ff#
16ee
8.dd
16ee
=3
*M2/4
8.ff#
16cc#
16b
8.a}
=4
{8r
8ee
8cc#
16cc#
16b
=5
8b
8f#
8.a
16b
=6
16ff#
16cc#
16b
16a
4f#
=7
8.ff#
16cc#
16b
16cc#
16b
16a
=8
8b
16b
16dd
4f#}
=9
{8b
8b
8a
8b
=10
8.ff#
16cc#
8b
8cc#
=11
16b
16cc#
16b
16a
4f#
=12
8.ff#
16cc#
16b
16cc#
16b
16a
=13
8b
16b
16dd
4a}
=14
{8dd
8cc#
16b
16cc#
16b
16a
=15
8b
16b
16dd
4f#
=16
8b
16b
16dd
4f#
=17
8dd
8cc#
16b
16cc#
16b
16a
=18
8b
8b
4f#}
=19
{8ee
8cc#
16b
16cc#
16b
16a
=20
8b
16b
16dd
4f#
=21
8a
16b
16b
8a
8b
=22
4dd
4dd}
=23
{8r
8dd
8ff#
16ff#
16ff#
8ee
8cc#
=24
8ff#
8b
4dd}
=25
{8dd
8ff#
8ee
8ff#
=26
8dd
8ff#
8ee
8cc#
=27
8ff#
8cc#
8b
8a
=28
8ff#
16ff#
16aa
8ee
8cc#
=29
8b
16b
16f#
4a}
==
!!!AGN: Xiaodiao. Fengsu, Qingge, Sichun
!!!ONB: ESAC (Essen Associative Code) Database: CHINA
!!!AMT: irregular
!!!AIN: vox
!!!EED: Helmut Schaffrath
!!!EEV: 1.0
*-
